X:1
T:3
T:3
T:160 Kurze Übungen op. 821
T:Carl Czerny
C:Carl Czerny
%%score { 1 | 2 }
L:1/8
Q:1/4=122
M:4/4
K:C
V:1 treble nm="Piano" snm="Pno."
V:2 treble 
V:1
!p!"^Allegretto" z/ ([eg]/[fa]/[eg]/) z/ ([eg]/[fa]/[eg]/) z/!<(! ([eg]/[fa]/[eg]/) z/ ([eg]/[fa]/[eg]/)!<)! | %1
 z/!>(! (!1!!3![Bd]/[ce]/[Bd]/ .g).g (gfdB)!>)! | %2
 z/ (!1!!3![Ac]/[Bd]/[Ac]/) z/ ([Ac]/[Bd]/[Ac]/) z/ (!1!!3![df]/[eg]/[df]/) z/ ([df]/[eg]/[df]/) | %3
 z (!1!!3![ce]/[df]/ .[eg]).[ce] .!1!!2![Bd]!<(!(!2!^F/!1!G/ !2!A/!3!B/!1!c/!2!d/)!<)! | %4
!f! z/ (!1!!3![ce]/[df]/[eg]/) z/ (!3!!5![eg]/[df]/[ce]/) z/ ([ce]/[df]/[eg]/) z/ ([eg]/[df]/[ce]/) | %5
 z/ (!1!!3![fa]/[gb]/[ac']/) z/ (!3!!5![ac']/[gb]/[fa]/) z/ (([fa]/[gb]/[ac']/)) z/ (([ac']/[gb]/[fa]/)) | %6
 z/ (!2!!4![eg]/[fa]/[eg]/) z/ (!1!!3![ce]/[df]/[ce]/) z/ (!2!!4![df]/[eg]/[df]/) z/ (!1!!3![Bd]/[ce]/[Bd]/ | %7
 (!2!c/)G/c/!4!e/ !5!g/!3!e/g/e/ c) z z2 |] %8
V:2
 !5!!1![CG] z [CG] z [CG] z [CG] z | [G,F]8 | %2
[K:bass] !5!!1![A,E] z [A,E] z !5!!3!!1![F,A,D] z [F,A,D] z | %3
 (!5!!2!!1![G,CE]4 .!5!!3!!1![G,B,D]) z z2 | C, z C z C, z C z | F, z F z F, z F z | %6
 !5!!2!!1![G,CE] z [G,CE] z !5!!3!!1![G,B,D] z [G,DF] z | [CE] z [CE] z [CE] z z2 |] %8

